modules/hawcons-filled/icons/icon-74-snowflake.svg

<?xml version="1.0" encoding="UTF-8" standalone="no"?>
<svg width="32px" height="32px" viewBox="0 0 32 32" version="1.1" xmlns="http://www.w3.org/2000/svg" xmlns:xlink="http://www.w3.org/1999/xlink" xmlns:sketch="http://www.bohemiancoding.com/sketch/ns">
    <!-- Generator: Sketch 3.0.3 (7891) - http://www.bohemiancoding.com/sketch -->
    <title>icon 74 snowflake</title>
    <desc>Created with Sketch.</desc>
    <defs></defs>
    <g id="Page-1" stroke="none" stroke-width="1" fill="none" fill-rule="evenodd" sketch:type="MSPage">
        <g id="icon-74-snowflake" sketch:type="MSArtboardGroup" fill="#929292">
            <path d="M12.9732042,19.3196891 L15.2928932,17 L9.66326584,17 C9.6397033,17.0607888 9.60369245,17.1176283 9.55494124,17.1663795 L8.13420671,18.587114 C7.93647393,18.7848468 7.62562256,18.7791157 7.43036041,18.5838535 C7.24080884,18.394302 7.2336385,18.0734687 7.42709993,17.8800072 L8.30710716,17 L7.5082041,17 C7.22661515,17 7,16.7761424 7,16.5 C7,16.2319336 7.22753073,16 7.5082041,16 L8.26072044,16 L7.42709993,15.1663795 C7.2336385,14.9729181 7.24080884,14.6520848 7.43036041,14.4625332 C7.62562256,14.267271 7.93647393,14.2615399 8.13420671,14.4592727 L9.55494124,15.8800072 C9.59106019,15.9161262 9.62018585,15.9566848 9.642437,16 L9.642437,16 L15.2928932,16 L12.9862185,13.6933252 L12.9862185,13.6933252 C12.9322226,13.7142403 12.8737603,13.7257851 12.8127195,13.7257851 L10.8034975,13.7257851 C10.5238611,13.7257851 10.3081085,13.5019275 10.3081085,13.2257851 C10.3081085,12.9577187 10.5299017,12.7257851 10.8034975,12.7257851 L12.0186783,12.7257851 L11.1960464,11.9031532 C11.0011447,11.7082515 11.0071476,11.3862507 11.1966991,11.1966991 C11.3919613,11.001437 11.70842,11.0013132 11.9031532,11.1960464 L12.7223221,12.0152153 L12.7223221,10.8069605 C12.7223221,10.5333647 12.9542557,10.3115715 13.2223221,10.3115715 C13.4984645,10.3115715 13.7223221,10.5273241 13.7223221,10.8069605 L13.7223221,12.8161825 C13.7223221,12.8753383 13.7114794,12.9320723 13.6917731,12.9846663 L16,15.2928932 L16,9.65591175 L16,9.65591175 C15.9533077,9.63314011 15.9096319,9.60252474 15.8710278,9.56392065 L14.4502933,8.14318613 C14.2525605,7.94545335 14.2582916,7.63460197 14.4535538,7.43933983 C14.6431053,7.24978825 14.9639386,7.24261792 15.1574001,7.43607935 L16,8.27867927 L16,7.5082041 C16,7.22661515 16.2238576,7 16.5,7 C16.7680664,7 17,7.22753073 17,7.5082041 L17,8.30710716 L17.8710278,7.43607935 C18.0644892,7.24261792 18.3853225,7.24978825 18.5748741,7.43933983 C18.7701363,7.63460197 18.7758674,7.94545335 18.5781346,8.14318613 L17.1574001,9.56392065 C17.1110571,9.61026358 17.0574053,9.64509378 17,9.66866214 L17,15.2928932 L17,15.2928932 L19.3082235,12.9846697 C19.2919008,12.9363357 19.283004,12.8847375 19.283004,12.8311522 L19.283004,10.8219301 C19.283004,10.5422937 19.5068616,10.3265411 19.783004,10.3265411 C20.0510704,10.3265411 20.283004,10.5483343 20.283004,10.8219301 L20.283004,12.0098892 L21.0968468,11.1960464 C21.29158,11.0013132 21.6080387,11.001437 21.8033009,11.1966991 C21.9928524,11.3862507 21.9988553,11.7082515 21.8039536,11.9031532 L20.9663521,12.7407547 L22.2018286,12.7407547 C22.4754243,12.7407547 22.6972175,12.9726883 22.6972175,13.2407547 C22.6972175,13.5168971 22.4814649,13.7407547 22.2018286,13.7407547 L20.1926065,13.7407547 C20.1260846,13.7407547 20.062625,13.7270435 20.0046713,13.7024355 L20.0046713,13.7024355 L17.7071068,16 L23.3859909,16 C23.408242,15.9566848 23.4373677,15.9161262 23.4734867,15.8800072 L24.8942212,14.4592727 C25.091954,14.2615399 25.4028053,14.267271 25.5980675,14.4625332 C25.787619,14.6520848 25.7947894,14.9729181 25.601328,15.1663795 L24.7677074,16 L25.4917959,16 C25.7733849,16 26,16.2238576 26,16.5 C26,16.7680664 25.7724693,17 25.4917959,17 L24.7213207,17 L25.601328,17.8800072 C25.7947894,18.0734687 25.787619,18.394302 25.5980675,18.5838535 C25.4028053,18.7791157 25.091954,18.7848468 24.8942212,18.587114 L23.4734867,17.1663795 C23.4247354,17.1176283 23.3887246,17.0607888 23.3651621,17 L23.3651621,17 L17.7071068,17 L20.0313761,19.3242693 L20.0313761,19.3242693 C20.0776056,19.3094681 20.1267243,19.3014366 20.1776369,19.3014366 L22.1868589,19.3014366 C22.4664953,19.3014366 22.6822479,19.5252942 22.6822479,19.8014366 C22.6822479,20.069503 22.4604547,20.3014366 22.1868589,20.3014366 L21.0085434,20.3014366 L21.8039536,21.0968468 C21.9988553,21.2917485 21.9928524,21.6137493 21.8033009,21.8033009 C21.6080387,21.998563 21.29158,21.9986868 21.0968468,21.8039536 L20.2680344,20.9751411 L20.2680344,22.2202612 C20.2680344,22.493857 20.0361008,22.7156502 19.7680344,22.7156502 C19.491892,22.7156502 19.2680344,22.4998976 19.2680344,22.2202612 L19.2680344,20.2110391 C19.2680344,20.1419336 19.2828312,20.076133 19.3092698,20.0163766 L17,17.7071068 L17,23.3777246 L17,23.3777246 C17.0574053,23.4012929 17.1110571,23.4361231 17.1574001,23.4824661 L18.5781346,24.9032006 C18.7758674,25.1009334 18.7701363,25.4117847 18.5748741,25.6070469 C18.3853225,25.7965985 18.0644892,25.8037688 17.8710278,25.6103074 L17,24.7392796 L17,25.4917959 C17,25.7733849 16.7761424,26 16.5,26 C16.2319336,26 16,25.7724693 16,25.4917959 L16,24.7677074 L15.1574001,25.6103074 C14.9639386,25.8037688 14.6431053,25.7965985 14.4535538,25.6070469 C14.2582916,25.4117847 14.2525605,25.1009334 14.4502933,24.9032006 L15.8710278,23.4824661 C15.9096319,23.443862 15.9533077,23.4132466 16,23.390475 L16,17.7071068 L13.6775406,20.0295662 C13.69678,20.081603 13.7073525,20.1376556 13.7073525,20.1960695 L13.7073525,22.2052915 C13.7073525,22.4849279 13.4834948,22.7006805 13.2073525,22.7006805 C12.9392861,22.7006805 12.7073525,22.4788873 12.7073525,22.2052915 L12.7073525,20.9997543 L11.9031532,21.8039536 C11.70842,21.9986868 11.3919613,21.998563 11.1966991,21.8033009 C11.0071476,21.6137493 11.0011447,21.2917485 11.1960464,21.0968468 L12.0064262,20.286467 L10.7885279,20.286467 C10.5149321,20.286467 10.2931389,20.0545334 10.2931389,19.786467 C10.2931389,19.5103246 10.5088915,19.286467 10.7885279,19.286467 L12.7977499,19.286467 C12.8595282,19.286467 12.9186653,19.2982924 12.9732042,19.3196891 L12.9732042,19.3196891 Z M16.5,28 C22.8512749,28 28,22.8512749 28,16.5 C28,10.1487251 22.8512749,5 16.5,5 C10.1487251,5 5,10.1487251 5,16.5 C5,22.8512749 10.1487251,28 16.5,28 L16.5,28 Z" id="snowflake" sketch:type="MSShapeGroup"></path>
        </g>
    </g>
</svg>

<svg width="32" height="32" xmlns="http://www.w3.org/2000/svg"><path d="M12.973 19.32l2.32-2.32h-5.63a.48.48 0 0 1-.108.166l-1.42 1.421a.494.494 0 0 1-.705-.003.503.503 0 0 1-.003-.704l.88-.88h-.799A.504.504 0 0 1 7 16.5c0-.268.228-.5.508-.5h.753l-.834-.834a.503.503 0 0 1 .003-.703.494.494 0 0 1 .704-.004l1.42 1.421a.479.479 0 0 1 .088.12h5.65l-2.306-2.307a.48.48 0 0 1-.173.033h-2.01a.494.494 0 0 1-.495-.5c0-.268.222-.5.495-.5h1.216l-.823-.823a.5.5 0 1 1 .707-.707l.82.82v-1.209c0-.274.231-.495.5-.495.275 0 .5.215.5.495v2.01a.48.48 0 0 1-.031.168L16 15.293V9.656a.479.479 0 0 1-.129-.092l-1.42-1.42a.494.494 0 0 1 .003-.705c.19-.19.51-.196.703-.003L16 8.28v-.77c0-.282.224-.509.5-.509.268 0 .5.228.5.508v.8l.871-.872a.503.503 0 0 1 .704.003.494.494 0 0 1 .003.704l-1.42 1.42A.48.48 0 0 1 17 9.67v5.624l2.308-2.308a.479.479 0 0 1-.025-.154v-2.01c0-.279.224-.494.5-.494.268 0 .5.221.5.495v1.188l.814-.814a.5.5 0 0 1 .707.707l-.838.838h1.236c.273 0 .495.232.495.5 0 .276-.216.5-.495.5h-2.01a.48.48 0 0 1-.187-.039L17.707 16h5.679a.479.479 0 0 1 .087-.12l1.421-1.42a.494.494 0 0 1 .704.003c.19.19.197.51.003.703l-.833.834h.724c.281 0 .508.224.508.5a.51.51 0 0 1-.508.5h-.77l.88.88a.503.503 0 0 1-.004.704.494.494 0 0 1-.704.003l-1.42-1.42a.48.48 0 0 1-.109-.167h-5.658l2.324 2.324a.479.479 0 0 1 .147-.023h2.009c.28 0 .495.224.495.5 0 .269-.222.5-.495.5h-1.178l.795.796a.5.5 0 1 1-.707.707l-.829-.829v1.245a.503.503 0 0 1-.5.496.494.494 0 0 1-.5-.496v-2.009a.48.48 0 0 1 .041-.195L17 17.707v5.67a.48.48 0 0 1 .157.105l1.421 1.421a.494.494 0 0 1-.003.704.503.503 0 0 1-.704.003L17 24.74v.752a.504.504 0 0 1-.5.508.51.51 0 0 1-.5-.508v-.724l-.843.842a.503.503 0 0 1-.703-.003.494.494 0 0 1-.004-.704l1.421-1.42A.479.479 0 0 1 16 23.39v-5.683l-2.322 2.323a.48.48 0 0 1 .03.166v2.01c0 .279-.225.495-.5.495a.503.503 0 0 1-.5-.496V21l-.805.804a.5.5 0 0 1-.707-.707l.81-.81H10.79a.503.503 0 0 1-.496-.5c0-.277.216-.5.496-.5h2.009a.48.48 0 0 1 .175.033zM16.5 28C22.851 28 28 22.851 28 16.5S22.851 5 16.5 5 5 10.149 5 16.5 10.149 28 16.5 28z" fill="#929292" fill-rule="evenodd"/></svg>
